icons/hexagon-arrow-up-outline.svg

<svg xmlns="http://www.w3.org/2000/svg" width="24" height="24" viewBox="0 0 24 24">
  <path d="M16.3174576,1 C17.4115312,1 18.4188507,1.59559898 18.9461053,2.55424375 L18.9461053,2.55424375 L23.3461053,10.5542438 C23.8412416,11.4544917 23.8412416,12.5455083 23.3461053,13.4457562 L23.3461053,13.4457562 L18.9461053,21.4457562 C18.4188507,22.404401 17.4115312,23 16.3174576,23 L16.3174576,23 L7.68254244,23 C6.58846875,23 5.58114934,22.404401 5.05389472,21.4457562 L5.05389472,21.4457562 L0.653894716,13.4457562 C0.158758351,12.5455083 0.158758351,11.4544917 0.653894716,10.5542438 L0.653894716,10.5542438 L5.05389472,2.55424375 C5.58114934,1.59559898 6.58846875,1 7.68254244,1 L7.68254244,1 Z M16.3174576,3 L7.68254244,3 C7.31785121,3 6.98207807,3.19853299 6.80632653,3.51808125 L6.80632653,3.51808125 L2.40632653,11.5180813 C2.24128108,11.8181639 2.24128108,12.1818361 2.40632653,12.4819187 L2.40632653,12.4819187 L6.80632653,20.4819187 C6.98207807,20.801467 7.31785121,21 7.68254244,21 L7.68254244,21 L16.3174576,21 C16.6821488,21 17.0179219,20.801467 17.1936735,20.4819187 L17.1936735,20.4819187 L21.5936735,12.4819187 C21.7587189,12.1818361 21.7587189,11.8181639 21.5936735,11.5180813 L21.5936735,11.5180813 L17.1936735,3.51808125 C17.0179219,3.19853299 16.6821488,3 16.3174576,3 L16.3174576,3 Z M11.3538862,6.2366872 L11.3665424,6.226 L11.3695424,6.224 L11.3715424,6.222 L11.4182204,6.1864634 L11.4182204,6.1864634 C11.4377852,6.17252629 11.4583066,6.15891923 11.4793398,6.14606743 C11.4928304,6.13772719 11.5064305,6.12986112 11.5201698,6.12234168 C11.5371537,6.1131069 11.5549095,6.1040443 11.5729619,6.09550623 C11.5932325,6.08591191 11.613165,6.07731015 11.6333026,6.06938695 L11.6872762,6.04987089 L11.6872762,6.04987089 C11.7025958,6.04489522 11.7182588,6.04017413 11.734007,6.03584514 C11.7555635,6.02983363 11.7772539,6.0246398 11.7992059,6.02016515 C11.8166247,6.01670217 11.834051,6.01362808 11.8515331,6.0110178 C11.8705796,6.00810098 11.8903051,6.00574796 11.9101982,6.00397748 C11.9208131,6.00307004 11.9308872,6.00232561 11.9409686,6.0017331 L11.9806591,6.0001833 L12,6 L12,6 L12.0181458,6.001 L12.0295424,6.001 L12.0805424,6.003 L12.1489612,6.01101934 L12.1489612,6.01101934 C12.1661068,6.01365592 12.1834538,6.01671819 12.2007258,6.02024007 C12.2227461,6.0246398 12.2444365,6.02983363 12.2658396,6.03572097 L12.3121425,6.04973809 L12.3121425,6.04973809 C12.3317977,6.05612249 12.3515792,6.06331574 12.3710585,6.07110396 L12.4232215,6.09367336 L12.4232215,6.09367336 L12.4786822,6.12179647 L12.4786822,6.12179647 C12.4935488,6.12981337 12.5087703,6.13863517 12.5238,6.14789148 C12.5456983,6.16150681 12.5664533,6.17541687 12.5866395,6.19006311 C12.5953343,6.19627953 12.6041603,6.2029095 12.6128994,6.20970461 C12.6197272,6.21512226 12.6225945,6.21739784 12.625449,6.21968877 L12.7071068,6.29289322 L16.363961,9.94974747 C16.7544853,10.3402718 16.7544853,10.9734367 16.363961,11.363961 C16.0034771,11.724445 15.436246,11.7521745 15.0439548,11.4471496 L14.9497475,11.363961 L12.9991458,9.414 L13,17 C13,17.5522847 12.5522847,18 12,18 C11.4871642,18 11.0644928,17.6139598 11.0067277,17.1166211 L11,17 L10.9991458,9.414 L9.05025253,11.363961 C8.65972824,11.7544853 8.02656326,11.7544853 7.63603897,11.363961 C7.27555501,11.0034771 7.24782547,10.436246 7.55285036,10.0439548 L7.63603897,9.94974747 L11.2928932,6.29289322 L11.3538862,6.2366872 L11.3538862,6.2366872 Z"/>
</svg>

<svg xmlns="http://www.w3.org/2000/svg" viewBox="0 0 24 24">
  <path d="M16.32 1a3 3 0 0 1 2.63 1.55l4.4 8c.5.9.5 2 0 2.9l-4.4 8A3 3 0 0 1 16.32 23H7.68a3 3 0 0 1-2.63-1.55l-4.4-8a3 3 0 0 1 0-2.9l4.4-8A3 3 0 0 1 7.68 1zm0 2H7.68a1 1 0 0 0-.87.52l-4.4 8a1 1 0 0 0 0 .96l4.4 8a1 1 0 0 0 .87.52h8.64a1 1 0 0 0 .87-.52l4.4-8a1 1 0 0 0 0-.96l-4.4-8a1 1 0 0 0-.87-.52zm-4.97 3.24.02-.01.05-.04a1.04 1.04 0 0 1 .21-.12l.06-.02a1.07 1.07 0 0 1 .25-.05h.14l.07.01a1.09 1.09 0 0 1 .12.03l.04.01.06.02.05.02.06.03a.91.91 0 0 1 .15.1l.08.07 3.65 3.66a1 1 0 0 1-1.32 1.5l-.09-.09L13 9.41V17a1 1 0 0 1-2 .12V9.4l-1.95 1.95a1 1 0 0 1-1.5-1.32l.09-.09 3.65-3.66.06-.05z"/>
</svg>
